X:89
T: Der wolgemute Jaeger
N: A0441
O: Europa, Mitteleuropa, Deutschland
N: Forster III 1549 No. 72.
R: Romanze, Ballade, Lied, Jaegerlied
M: 4/2
L: 1/4
K: F
F2 | F2F2c4 | G2A4B2 | c8 | z2
c2c2c2 | A2F2A2B2 | c4A2
c2 | c2G2G2FE | D4C4 | z2
F2F2F2 | A2F2A2B2 | c4z2
c2 | A2G2F2F2 | c4c2
c2 | d3cB2AG | A2B2G4 | F6

@@@ Tune index: 402
